X: 107
T:Joyfull Sound,The. JMP.107
M:4/4
L:1/4
Q:122
S:John Miller MS. Perth, 1799.(for the fife)
R:Hymn
O:Scotland
A:Perth
N:No key signature in MS..Three people have written the title at the top
N:of the page
N:Two of them spell it 'Joyful'
N:1 -  End of line - photocopy very dark
N:Salvation Oh! the joyfull sound what pleasure to our ears
N:Balm for every wound a cordial for our  fears
N:Glory Honour and  power, be unto the Lamb for ever
N:he alone is our Redeemer.
N:Hallelujah x 3 praise the Lord
H:1799
Z:vmp.C. Graebe
K:G major
"See notes for words"D | GFG (A/B/4c/4) | BAB (c/B/) |\
 A (B/c/4d/4) A/G/ F/E/ | D2 A/B/ (A/G/) |\
 "1"GFG (A/d/) |!
 (c/B/) (A/G/) (G/F/) E/D/ |\
 d (c/B/) c (B/A/) | G2 GA  BG "1" cdB |\
e (d/c/) d (c/B/) | cBAG |!
 c>BA>G |\
FGAD | dABA | dA (B/A/) G | cBe(d/c/) | B2A2 | G4 |]
